assets/img/braze_icons/luggage-02.svg

<svg fill="none" height="24" viewBox="0 0 24 24" width="24" xmlns="http://www.w3.org/2000/svg"><path clip-rule="evenodd" d="m9.96473 2.13639c.51167-.13709 1.10227-.13677 1.89767-.13634h.2752c.7954-.00043 1.386-.00075 1.8977.13634 1.3803.36987 2.4585 1.44806 2.8284 2.82843.0824.30744.1152.64341.1281 1.03518h.2495c.805-.00001 1.4693-.00002 2.0105.04419.5621.04593 1.0788.14449 1.5642.39179.7526.38349 1.3645.99541 1.748 1.74806.2473.48533.3459 1.00204.3918 1.56414.0442.54122.0442 1.20552.0442 2.01052v4.4826c0 .805 0 1.4693-.0442 2.0105-.0459.5621-.1445 1.0788-.3918 1.5642-.3835.7526-.9954 1.3645-1.748 1.748-.4854.2473-1.0021.3459-1.5642.3918-.5412.0442-1.2056.0442-2.0105.0442h-10.48262c-.80495 0-1.46932 0-2.0105-.0442-.5621-.0459-1.0788-.1445-1.56414-.3918-.75265-.3835-1.36457-.9954-1.74806-1.748-.24729-.4854-.34586-1.0021-.39178-1.5642-.044221-.5412-.044211-1.2055-.0442-2.0105v-4.4826c-.000011-.805-.000021-1.4693.0442-2.01052.04592-.5621.14449-1.07881.39178-1.56414.38349-.75265.99541-1.36457 1.74806-1.74806.48534-.2473 1.00204-.34586 1.56414-.39179.54119-.04421 1.20556-.0442 2.01052-.04419h.24952c.01294-.39177.0457-.72774.12808-1.03518.36987-1.38037 1.44806-2.45856 2.82843-2.82843zm4.96717 3.34607c.0318.11877.0491.26003.0582.51754h-5.98023c.00919-.25751.02646-.39877.05828-.51754.18494-.69019.72403-1.22928 1.41425-1.41422.2222-.05955.5233-.06814 1.5176-.06814.9944 0 1.2954.00859 1.5176.06814.6902.18494 1.2293.72403 1.4143 1.41422zm-2.8774 8.29054c-.0545.107-.0545.247-.0545.527v2.4c0 .28 0 .42.0545.527.0479.0941.1244.1706.2185.2185.107.0545.247.0545.527.0545h4.9c.28 0 .42 0 .527-.0545.0941-.0479.1706-.1244.2185-.2185.0545-.107.0545-.247.0545-.527v-2.4c0-.28 0-.42-.0545-.527-.0479-.0941-.1244-.1706-.2185-.2185-.107-.0545-.247-.0545-.527-.0545h-4.9c-.28 0-.42 0-.527.0545-.0941.0479-.1706.1244-.2185.2185z" fill="#801ed7" fill-rule="evenodd"/></svg>

<svg width="24" height="24" viewBox="0 0 24 24" fill="none" xmlns="http://www.w3.org/2000/svg">
<path fill-rule="evenodd" clip-rule="evenodd" d="M9.96473 2.13639C10.4764 1.9993 11.067 1.99962 11.8624 2.00005H12.1376C12.933 1.99962 13.5236 1.9993 14.0353 2.13639C15.4156 2.50626 16.4938 3.58445 16.8637 4.96482C16.9461 5.27226 16.9789 5.60823 16.9918 6H17.2413C18.0463 5.99999 18.7106 5.99998 19.2518 6.04419C19.8139 6.09012 20.3306 6.18868 20.816 6.43598C21.5686 6.81947 22.1805 7.43139 22.564 8.18404C22.8113 8.66937 22.9099 9.18608 22.9558 9.74818C23 10.2894 23 10.9537 23 11.7587V16.2413C23 17.0463 23 17.7106 22.9558 18.2518C22.9099 18.8139 22.8113 19.3306 22.564 19.816C22.1805 20.5686 21.5686 21.1805 20.816 21.564C20.3306 21.8113 19.8139 21.9099 19.2518 21.9558C18.7106 22 18.0462 22 17.2413 22H6.75868C5.95373 22 5.28936 22 4.74818 21.9558C4.18608 21.9099 3.66938 21.8113 3.18404 21.564C2.43139 21.1805 1.81947 20.5686 1.43598 19.816C1.18869 19.3306 1.09012 18.8139 1.0442 18.2518C0.999979 17.7106 0.999989 17.0463 1 16.2413V11.7587C0.999989 10.9537 0.999979 10.2894 1.0442 9.74818C1.09012 9.18608 1.18869 8.66937 1.43598 8.18404C1.81947 7.43139 2.43139 6.81947 3.18404 6.43598C3.66938 6.18868 4.18608 6.09012 4.74818 6.04419C5.28937 5.99998 5.95374 5.99999 6.7587 6H7.00822C7.02116 5.60823 7.05392 5.27226 7.1363 4.96482C7.50617 3.58445 8.58436 2.50626 9.96473 2.13639ZM14.9319 5.48246C14.9637 5.60123 14.981 5.74249 14.9901 6H9.00987C9.01906 5.74249 9.03633 5.60123 9.06815 5.48246C9.25309 4.79227 9.79218 4.25318 10.4824 4.06824C10.7046 4.00869 11.0057 4.0001 12 4.0001C12.9944 4.0001 13.2954 4.00869 13.5176 4.06824C14.2078 4.25318 14.7469 4.79227 14.9319 5.48246ZM12.0545 13.773C12 13.88 12 14.02 12 14.3V16.7C12 16.98 12 17.12 12.0545 17.227C12.1024 17.3211 12.1789 17.3976 12.273 17.4455C12.38 17.5 12.52 17.5 12.8 17.5H17.7C17.98 17.5 18.12 17.5 18.227 17.4455C18.3211 17.3976 18.3976 17.3211 18.4455 17.227C18.5 17.12 18.5 16.98 18.5 16.7V14.3C18.5 14.02 18.5 13.88 18.4455 13.773C18.3976 13.6789 18.3211 13.6024 18.227 13.5545C18.12 13.5 17.98 13.5 17.7 13.5H12.8C12.52 13.5 12.38 13.5 12.273 13.5545C12.1789 13.6024 12.1024 13.6789 12.0545 13.773Z" fill="#801ED7"/>
</svg>
